Newaita/actions/32/stroke-join-round.svg

<?xml version="1.0" encoding="UTF-8"?>
<svg xmlns="http://www.w3.org/2000/svg" xmlns:xlink="http://www.w3.org/1999/xlink" width="32pt" height="32pt" viewBox="0 0 32 32" version="1.1">
<g id="surface1">
<path style=" stroke:none;fill-rule:nonzero;fill:rgb(25.882354%,25.882354%,25.882354%);fill-opacity:1;" d="M 14.554688 12.15625 L 14.554688 30.679688 L 22.492188 30.679688 L 22.492188 20.757812 L 27.785156 20.757812 L 27.785156 12.15625 Z M 16.539062 14.140625 L 25.800781 14.140625 L 25.800781 18.773438 L 20.507812 18.773438 L 20.507812 28.695312 L 16.539062 28.695312 Z M 16.539062 14.140625 "/>
<path style=" stroke:none;fill-rule:evenodd;fill:rgb(25.882354%,25.882354%,25.882354%);fill-opacity:1;" d="M 11.90625 1.574219 C 7.507812 1.574219 3.96875 5.113281 3.96875 9.511719 L 3.96875 30.679688 L 11.90625 30.679688 L 11.90625 10.835938 C 11.90625 10.101562 12.496094 9.511719 13.230469 9.511719 L 26.460938 9.511719 L 26.460938 1.574219 Z M 11.246094 3.558594 C 11.46875 3.558594 11.691406 3.570312 11.90625 3.597656 L 11.90625 3.558594 L 24.476562 3.558594 L 24.476562 7.527344 L 13.230469 7.527344 C 11.398438 7.527344 9.921875 8.855469 9.921875 10.503906 L 9.921875 28.695312 L 5.953125 28.695312 L 5.953125 9.511719 L 5.996094 9.511719 C 5.96875 9.292969 5.953125 9.074219 5.953125 8.851562 C 5.953125 5.917969 8.3125 3.558594 11.246094 3.558594 Z M 11.246094 3.558594 "/>
</g>
</svg>

<svg xmlns="http://www.w3.org/2000/svg" width="32pt" height="32pt" viewBox="0 0 32 32"><g fill="#424242"><path d="M14.555 12.156V30.68h7.937v-9.922h5.293v-8.602zm1.984 1.985h9.262v4.632h-5.293v9.922h-3.969zm0 0"/><path d="M11.906 1.574A7.919 7.919 0 0 0 3.97 9.512V30.68h7.937V10.836c0-.734.59-1.324 1.324-1.324h13.23V1.574zm-.66 1.985c.223 0 .445.011.66.039v-.04h12.57v3.97H13.23c-1.832 0-3.308 1.327-3.308 2.976v18.191H5.953V9.512h.043a5.28 5.28 0 0 1 5.25-5.953zm0 0" fill-rule="evenodd"/></g></svg>
